; generated by PrusaSlicer 2.8.0+MacOS-arm64 on 2024-08-05 at 08:35:27 UTC


;
;

;
;
; 

; external perimeters extrusion width = 0.68mm
; perimeters extrusion width = 0.68mm
; infill extrusion width = 0.68mm
; solid infill extrusion width = 0.68mm
; top infill extrusion width = 0.60mm


EXCLUDE_OBJECT_DEFINE NAME='3dbenchy_stl' CENTER=123.391,124.999 POLYGON=[[130.814,109.500],[134.040,109.655],[134.842,109.782],[136.896,110.334],[138.822,110.987],[140.548,111.693],[142.366,112.572],[143.930,113.449],[145.637,114.544],[147.104,115.612],[149.831,117.962],[151.282,119.443],[152.498,120.838],[154.652,123.745],[154.966,124.593],[154.999,125.088],[154.932,125.569],[154.624,126.301],[153.660,127.676],[152.060,129.683],[150.200,131.680],[148.512,133.239],[146.544,134.810],[144.652,136.106],[142.594,137.307],[140.579,138.292],[138.493,139.134],[136.296,139.841],[134.316,140.319],[130.908,140.500],[128.133,140.437],[125.373,140.188],[116.462,138.716],[110.338,137.806],[103.551,136.938],[96.792,136.215],[95.992,135.917],[95.407,135.370],[95.127,134.849],[95.000,134.179],[95.000,115.816],[95.081,115.296],[95.264,114.854],[95.539,114.466],[95.887,114.154],[96.312,113.919],[96.798,113.784],[104.180,112.988],[110.657,112.150],[116.858,111.221],[125.055,109.853],[127.988,109.571]]

;TYPE:Custom
START_PRINT BED_TEMP=80 HOTEND_TEMP=215 FILAMENT_TYPE=PLA EXTRUSION_MULTIPLIER=0.92 PERIMETER_SPEED=80
G21 ; set units to millimeters
G90 ; use absolute coordinates
M82 ; use absolute distances for extrusion
G92 E0
; Filament gcode
M107
;LAYER_CHANGE
;Z:0.35
;HEIGHT:0.35
G1 E-.5 F240
G1 Z.35 F9000
EXCLUDE_OBJECT_START NAME='3dbenchy_stl'
G92 E0
G1 X123.163 Y127.655
G1 E.5 F240
G92 E0
;TYPE:External perimeter
;WIDTH:0.895241
G1 F1800
G1 X123.212 Y127.373 E.03143
G1 X123.212 Y127.373 F9000
G1 X124.231 Y125.813
;WIDTH:0.675
G1 F1800
G1 X124.233 Y125.749 E.03657
G1 X123.546 Y124.568 E.14629
G1 X123.355 Y124.099 E.18696
G1 X123.345 Y123.733 E.21636
G1 X123.496 Y123.433 E.24333
G1 X123.7 Y123.272 E.2642
G1 X124.137 Y123.143 E.30079
G1 X124.484 Y123.232 E.32956
G1 X124.808 Y123.512 E.36395
G1 X125.189 Y124.142 E.42308
G1 X125.445 Y123.645 E.46798
G1 X125.798 Y123.289 E.50824
G1 X126.143 Y123.149 E.53814
G1 X126.455 Y123.185 E.56336
G1 X126.756 Y123.396 E.59288
G1 X126.823 Y123.519 E.60413
;WIDTH:0.649951
G1 X126.89 Y123.643 E.61498
;WIDTH:0.624903
G1 X126.928 Y123.994 E.64097
;WIDTH:0.627318
G1 X126.898 Y124.155 E.65308
;WIDTH:0.660948
G1 X126.869 Y124.315 E.66583
;WIDTH:0.675
G1 X126.313 Y125.269 E.75451
G1 X126.17 Y125.577 E.78178
G1 X126.131 Y125.702 E.7923
G1 X126.217 Y125.97 E.8149
G1 X126.838 Y127.004 E.91176
G1 X126.999 Y127.384 E.9449
G1 X127.03 Y127.67 E.968
G1 X126.978 Y127.947 E.99063
G1 X126.828 Y128.188 E1.01343
G1 X126.595 Y128.357 E1.03655
G1 X126.118 Y128.432 E1.07533
G1 X125.819 Y128.328 E1.10075
G1 X125.634 Y128.172 E1.12018
G1 X125.365 Y127.762 E1.15956
G1 X125.107 Y127.297 E1.20227
G1 X124.866 Y127.77 E1.2449
G1 X124.508 Y128.226 E1.29146
G1 X124.2 Y128.401 E1.31991
G1 X123.839 Y128.392 E1.34891
G1 X123.534 Y128.233 E1.37653
;WIDTH:0.712695
G1 X123.44 Y128.119 E1.38914
;WIDTH:0.750391
G1 X123.345 Y128.006 E1.40249
;WIDTH:0.788087
G1 X123.251 Y127.892 E1.41659
;WIDTH:0.830958
G1 X123.207 Y127.773 E1.42943
;WIDTH:0.873829
G1 X123.163 Y127.655 E1.4429
G1 X123.143 Y127.72 E1.45017
;WIDTH:0.851285
G1 X123.053 Y127.846 E1.46626
;WIDTH:0.807213
G1 X122.964 Y127.973 E1.48146
;WIDTH:0.763142
G1 X122.874 Y128.099 E1.49572
;WIDTH:0.719071
G1 X122.785 Y128.225 E1.50902
;WIDTH:0.675
G1 X122.319 Y128.578 E1.55597
G1 X121.825 Y128.7 E1.59683
G1 X121.384 Y128.642 E1.63255
G1 X120.885 Y128.362 E1.6785
G1 X120.586 Y127.983 E1.71727
G1 X120.438 Y127.429 E1.76332
;WIDTH:0.688302
G1 X120.527 Y126.853 E1.81116
G1 X120.288 Y127.22 E1.84711
;WIDTH:0.67745
G1 X119.936 Y127.596 E1.88864
;WIDTH:0.675
G1 X119.426 Y127.931 E1.93764
G1 X118.915 Y128.109 E1.9811
G1 X118.401 Y128.192 E2.02291
G1 X117.862 Y128.221 E2.06626
G1 X117.145 Y128.215 E2.12384
G1 X116.615 Y128.253 E2.16651
G1 X116.278 Y128.203 E2.19387
G1 X116.104 Y128.102 E2.21003
G1 X115.901 Y127.859 E2.23546
G1 X115.78 Y127.315 E2.28022
;WIDTH:0.7239
G1 X115.76 Y127.033 E2.30477
;WIDTH:0.772801
G1 X115.741 Y126.751 E2.33117
G1 X115.757 Y126.233 E2.37957
;WIDTH:0.77682
G1 X115.742 Y125.856 E2.41501
;WIDTH:0.806883
G1 X115.728 Y125.479 E2.45197
G1 X115.747 Y125.31 E2.46863
;WIDTH:0.769268
G1 X115.766 Y125.141 E2.48443
;WIDTH:0.731654
G1 X115.785 Y124.971 E2.49946
;WIDTH:0.69404
G1 X115.795 Y124.459 E2.54189
;WIDTH:0.722889
G1 X115.771 Y124.31 E2.55498
;WIDTH:0.770779
G1 X115.748 Y124.161 E2.56902
;WIDTH:0.818668
G1 X115.724 Y124.013 E2.58394
;WIDTH:0.866558
G1 X115.7 Y123.864 E2.59993
;WIDTH:0.880469
G1 X115.691 Y122.77 E2.71788
;WIDTH:0.847323
G1 X115.687 Y122.467 E2.74921
;WIDTH:0.814177
G1 X115.758 Y122.321 E2.76527
;WIDTH:0.767784
G1 X115.83 Y122.174 E2.78045
;WIDTH:0.721392
G1 X115.902 Y122.027 E2.79461
;WIDTH:0.675
G1 X116.137 Y121.832 E2.81913
G1 X116.44 Y121.726 E2.84491
G1 X116.742 Y121.697 E2.86927
G1 X118.33 Y121.733 E2.99683
G1 X118.831 Y121.799 E3.03741
G1 X119.33 Y121.935 E3.07895
G1 X119.731 Y122.139 E3.11508
G1 X120.1 Y122.446 E3.15363
G1 X120.459 Y122.922 E3.20151
G1 X120.625 Y123.217 E3.22869
G1 X120.831 Y123.812 E3.27926
G1 X120.935 Y124.443 E3.33062
G1 X120.943 Y125.038 E3.37841
G1 X120.942 Y125.361 E3.40435
G1 X120.853 Y125.973 E3.45402
;WIDTH:0.702399
G1 X120.694 Y126.542 E3.50363
;WIDTH:0.705719
G1 X120.671 Y126.601 E3.50898
G1 X120.869 Y126.37 E3.53466
;WIDTH:0.688846
G1 X121.279 Y126.124 E3.57394
;WIDTH:0.675
G1 X121.788 Y126.033 E3.61547
G1 X122.307 Y126.144 E3.65809
G1 X122.7 Y126.411 E3.69625
G1 X122.992 Y126.839 E3.73786
;WIDTH:0.719048
G1 X123.036 Y126.946 E3.74783
;WIDTH:0.763096
G1 X123.08 Y127.053 E3.75849
;WIDTH:0.807144
G1 X123.124 Y127.16 E3.76983
;WIDTH:0.851192
G1 X123.168 Y127.266 E3.78175
;WIDTH:0.895241
G1 X123.212 Y127.373 E3.79445
G1 X123.255 Y127.298 E3.80394
;WIDTH:0.860558
G1 X123.298 Y127.224 E3.81294
;WIDTH:0.825876
G1 X123.341 Y127.149 E3.82163
;WIDTH:0.791194
G1 X123.408 Y127.071 E3.83149
;WIDTH:0.752462
G1 X123.475 Y126.992 E3.84088
;WIDTH:0.713731
G1 X123.542 Y126.913 E3.84974
;WIDTH:0.675
G1 X123.908 Y126.271 E3.90909
G1 X124.179 Y125.887 E3.94683
G1 X123.977 Y125.322 F9000
G1 E3.44683 F240
G92 E0
G1 X120.671 Y126.601 F9000
G1 E.5 F240
;WIDTH:0.705719
G1 F1800
G1 X120.54 Y126.821 E.52162
G1 E.02162 F240
G92 E0
G1 X120.54 Y126.821 F9000
G1 X111.615 Y123.542
G1 E.5 F240
;WIDTH:0.659748
G1 F1800
G1 X111.595 Y123.548 E.50163
;WIDTH:0.675
G1 X111.32 Y123.452 E.52502
G1 X111.059 Y123.203 E.55399
G1 X110.958 Y123.026 E.57036
;WIDTH:0.662186
G1 X110.935 Y122.899 E.5805
;WIDTH:0.629661
G1 X110.912 Y122.771 E.59015
;WIDTH:0.597136
G1 X110.926 Y122.511 E.60835
;WIDTH:0.634631
G1 X110.982 Y122.355 E.62077
;WIDTH:0.675
G1 X111.037 Y122.198 E.63413
G1 X111.429 Y121.861 E.67565
G1 X111.965 Y121.634 E.7224
G1 X112.619 Y121.537 E.7755
G1 X113.258 Y121.567 E.82687
G1 X113.807 Y121.708 E.87239
G1 X114.263 Y121.977 E.91491
G1 X114.606 Y122.396 E.9584
;WIDTH:0.721392
G1 X114.667 Y122.473 E.9669
;WIDTH:0.767784
G1 X114.729 Y122.55 E.97607
;WIDTH:0.814177
G1 X114.79 Y122.627 E.98579
;WIDTH:0.843349
G1 X114.839 Y122.759 E1.00027
;WIDTH:0.872521
G1 X114.887 Y122.891 E1.01526
;WIDTH:0.887434
G1 X114.878 Y123.657 E1.09857
G1 X114.826 Y123.779 E1.11299
;WIDTH:0.844233
G1 X114.775 Y123.901 E1.12661
;WIDTH:0.801033
G1 X114.724 Y124.022 E1.13937
;WIDTH:0.757833
G1 X114.539 Y124.234 E1.16509
;WIDTH:0.716416
G1 X114.354 Y124.446 E1.18925
;WIDTH:0.675
G1 X114.286 Y124.494 E1.19593
G1 X114.648 Y124.824 E1.23527
;WIDTH:0.711445
G1 X114.758 Y125.048 E1.25653
;WIDTH:0.747891
G1 X114.868 Y125.271 E1.27893
;WIDTH:0.784337
G1 X114.979 Y125.495 E1.30267
G1 X115.083 Y126.174 E1.36789
;WIDTH:0.758945
G1 X115.033 Y126.709 E1.41708
G1 X114.86 Y127.063 E1.45315
;WIDTH:0.716972
G1 X114.686 Y127.416 E1.48697
;WIDTH:0.675
G1 X114.349 Y127.82 E1.52922
G1 X113.988 Y128.09 E1.56542
G1 X113.666 Y128.243 E1.59405
G1 X113.214 Y128.358 E1.63151
G1 X112.471 Y128.386 E1.69122
G1 X111.774 Y128.254 E1.74819
G1 X111.211 Y127.943 E1.79984
G1 X110.988 Y127.639 E1.83012
G1 X110.89 Y127.385 E1.85198
G1 X110.87 Y127.089 E1.87581
G1 X110.964 Y126.751 E1.90398
G1 X111.139 Y126.543 E1.92581
;WIDTH:0.688204
G1 X111.415 Y126.388 E1.95179
;WIDTH:0.733262
G1 X111.511 Y126.356 E1.96071
;WIDTH:0.77832
G1 X111.607 Y126.324 E1.97024
;WIDTH:0.823378
G1 X111.703 Y126.292 E1.98038
;WIDTH:0.868437
G1 X111.799 Y126.26 E1.99113
;WIDTH:0.882265
G1 X112.295 Y126.391 E2.04656
G1 X112.748 Y126.701 E2.10587
;WIDTH:0.870642
G1 X112.879 Y126.72 E2.11997
G1 X113.066 Y126.61 E2.14308
G1 X113.182 Y126.335 E2.17487
G1 X113.157 Y126.139 E2.19591
G1 X113.026 Y125.937 E2.22155
;WIDTH:0.889262
G1 X112.744 Y125.716 E2.2606
G1 X112.337 Y125.57 E2.30773
;WIDTH:0.869161
G1 X111.934 Y125.477 E2.3517
G1 X111.855 Y125.378 E2.36516
;WIDTH:0.82062
G1 X111.776 Y125.28 E2.37772
;WIDTH:0.77208
G1 X111.698 Y125.181 E2.38948
;WIDTH:0.72354
G1 X111.619 Y125.082 E2.40047
;WIDTH:0.675
G1 X111.553 Y124.801 E2.42365
G1 X111.622 Y124.352 E2.46013
G1 X111.822 Y124.067 E2.48809
;WIDTH:0.659748
G1 X112.01 Y123.978 E2.50437
;WIDTH:0.623324
G1 X112.197 Y123.89 E2.51954
;WIDTH:0.628822
G1 X112.471 Y123.809 E2.54072
;WIDTH:0.670744
G1 X112.744 Y123.727 E2.56345
G1 X112.92 Y123.583 E2.58158
;WIDTH:0.668914
G1 X112.987 Y123.352 E2.6007
G1 X112.935 Y123.227 E2.61146
G1 X112.848 Y123.146 E2.62091
G1 X112.613 Y123.135 E2.63961
G1 X112.311 Y123.278 E2.66617
;WIDTH:0.627907
G1 X112.009 Y123.422 E2.69093
;WIDTH:0.623324
G1 X111.802 Y123.485 E2.70681
;WIDTH:0.659748
G1 X111.701 Y123.516 E2.71508
G1 X111.153 Y123.272 F9000
G1 E2.21508 F240
G92 E0
G1 X103.242 Y126.414 F9000
G1 E.5 F240
;WIDTH:0.675
G1 F1800
G1 X103.292 Y126.371 E.5053
G1 X103.551 Y126.236 E.52876
G1 X104.074 Y126.243 E.57077
G1 X104.412 Y126.419 E.60137
G1 X104.634 Y126.696 E.62988
G1 X104.707 Y126.997 E.65475
G1 X104.605 Y127.339 E.68341
G1 X104.39 Y127.678 E.71565
G1 X104.149 Y127.915 E.74279
G1 X103.68 Y128.196 E.7867
G1 X103.079 Y128.359 E.83671
G1 X102.229 Y128.372 E.90498
G1 X101.663 Y128.253 E.95143
G1 X100.99 Y127.92 E1.01173
G1 X100.633 Y127.626 E1.04887
G1 X100.273 Y127.186 E1.09453
G1 X99.936 Y126.475 E1.15772
G1 X99.902 Y126.22 E1.17838
;WIDTH:0.63297
G1 X99.867 Y125.966 E1.19753
;WIDTH:0.590941
G1 X99.833 Y125.712 E1.21523
;WIDTH:0.548912
G1 X99.801 Y125.004 E1.26018
;WIDTH:0.540103
G1 X99.829 Y124.292 E1.30454
;WIDTH:0.585068
G1 X99.846 Y124.074 E1.31947
;WIDTH:0.630034
G1 X99.864 Y123.856 E1.33572
;WIDTH:0.675
G1 X99.881 Y123.638 E1.35328
G1 X100.076 Y123.098 E1.39939
G1 X100.418 Y122.544 E1.45168
G1 X100.871 Y122.095 E1.5029
G1 X101.416 Y121.771 E1.55382
G1 X101.994 Y121.592 E1.60241
G1 X102.578 Y121.536 E1.64953
G1 X103.32 Y121.616 E1.70946
G1 X103.743 Y121.764 E1.74545
G1 X104.236 Y122.085 E1.79269
G1 X104.5 Y122.376 E1.82424
;WIDTH:0.664849
G1 X104.562 Y122.583 E1.8413
;WIDTH:0.623092
G1 X104.625 Y122.79 E1.85717
;WIDTH:0.607518
G1 X104.635 Y122.898 E1.8649
;WIDTH:0.633702
G1 X104.646 Y123.006 E1.87302
;WIDTH:0.675
G1 X104.537 Y123.36 E1.90277
G1 X104.224 Y123.653 E1.9372
G1 X103.933 Y123.735 E1.96148
G1 X103.433 Y123.627 E2.00256
G1 X102.771 Y123.253 E2.06362
G1 X102.451 Y123.232 E2.08937
G1 X102.116 Y123.294 E2.11673
G1 X101.788 Y123.521 E2.14876
G1 X101.554 Y123.91 E2.18522
G1 X101.424 Y124.499 E2.23366
G1 X101.419 Y125.384 E2.30473
G1 X101.548 Y126.008 E2.3559
G1 X101.723 Y126.322 E2.38477
G1 X101.987 Y126.568 E2.41375
G1 X102.368 Y126.693 E2.44595
G1 X102.701 Y126.705 E2.47271
G1 X102.992 Y126.635 E2.49675
G1 X103.175 Y126.474 E2.51632
G1 X103.736 Y126.261 F9000
G1 E2.01632 F240
G92 E0
G1 X108.583 Y123.334 F9000
G1 E.5 F240
G1 F1800
G1 X108.566 Y124.238 E.57261
G1 X108.58 Y127.348 E.82237
G1 X108.439 Y127.861 E.8651
G1 X108.208 Y128.108 E.89226
G1 X107.971 Y128.215 E.91314
G1 X107.636 Y128.241 E.94012
G1 X107.279 Y128.135 E.97003
G1 X107.035 Y127.917 E.99631
G1 X106.924 Y127.543 E1.02764
G1 X106.962 Y126.925 E1.07736
G1 X106.945 Y124.152 E1.30006
G1 X106.978 Y123.613 E1.34343
G1 X106.939 Y123.429 E1.35854
G1 X106.798 Y123.328 E1.37247
G1 X106.504 Y123.312 E1.39612
G1 X105.856 Y123.379 E1.44844
G1 X105.564 Y123.334 E1.47217
G1 X105.282 Y123.145 E1.49943
G1 X105.199 Y122.901 E1.52013
;WIDTH:0.628048
G1 X105.115 Y122.657 E1.53923
;WIDTH:0.608392
G1 X105.102 Y122.525 E1.5487
;WIDTH:0.635689
G1 X105.09 Y122.394 E1.55857
;WIDTH:0.666839
G1 X105.118 Y122.214 E1.573
;WIDTH:0.675
G1 X105.266 Y121.941 E1.59794
G1 X105.47 Y121.774 E1.61911
G1 X105.904 Y121.677 E1.65482
G1 X106.489 Y121.718 E1.70192
G1 X109.779 Y121.707 E1.96614
G1 X110.189 Y121.835 E2.00063
G1 X110.412 Y122.112 E2.02919
G1 X110.431 Y122.287 E2.04333
;WIDTH:0.634421
G1 X110.451 Y122.463 E2.05659
;WIDTH:0.632595
G1 X110.408 Y122.845 E2.08528
;WIDTH:0.675
G1 X110.273 Y123.085 E2.10739
G1 X109.997 Y123.254 E2.13338
G1 X109.472 Y123.342 E2.17613
G1 X108.668 Y123.33 E2.24071
G1 X108.574 Y123.922 F9000
G1 E1.74071 F240
G92 E0
G1 X135.798 Y128.063 F9000
G1 E.5 F240
;WIDTH:0.765969
G1 F1800
G1 X135.547 Y128.317 E.53303
G1 X135.547 Y128.317 F9000
G1 X135.798 Y128.063
;WIDTH:0.760081
G1 F1800
G1 X135.84 Y127.881 E.55016
;WIDTH:0.732696
G1 X135.882 Y127.699 E.5666
;WIDTH:0.705311
G1 X135.867 Y127.536 E.58041
;WIDTH:0.675
G1 X135.756 Y127.154 E.61236
G1 X135.588 Y126.972 E.63225
G1 X135.252 Y126.812 E.66214
G1 X134.721 Y126.747 E.7051
G1 X134.144 Y126.774 E.75149
G1 X135.389 Y125.011 E.92482
G1 X135.71 Y124.454 E.97645
G1 X135.789 Y124.127 E1.00347
G1 X135.782 Y123.847 E1.02596
G1 X135.62 Y123.438 E1.06129
G1 X135.376 Y123.231 E1.08699
G1 X135.029 Y123.148 E1.11564
G1 X133.067 Y123.142 E1.27321
G1 X132.546 Y123.183 E1.31518
G1 X132.162 Y123.37 E1.34948
;WIDTH:0.711342
G1 X132.073 Y123.469 E1.36082
;WIDTH:0.747684
G1 X131.985 Y123.569 E1.37281
;WIDTH:0.784026
G1 X131.897 Y123.668 E1.38538
;WIDTH:0.823193
G1 X131.87 Y123.741 E1.39317
;WIDTH:0.862361
G1 X131.843 Y123.814 E1.40137
;WIDTH:0.901529
G1 X131.816 Y123.886 E1.40988
;WIDTH:0.940697
G1 X131.789 Y123.959 E1.4189
G1 X131.749 Y123.88 E1.42916
;WIDTH:0.901529
G1 X131.71 Y123.802 E1.43881
;WIDTH:0.862361
G1 X131.67 Y123.723 E1.44814
;WIDTH:0.823193
G1 X131.631 Y123.645 E1.45687
;WIDTH:0.784026
G1 X131.509 Y123.525 E1.47311
;WIDTH:0.747684
G1 X131.388 Y123.405 E1.48845
;WIDTH:0.711342
G1 X131.266 Y123.286 E1.50297
;WIDTH:0.675
G1 X131.022 Y123.166 E1.52481
G1 X130.783 Y123.155 E1.54402
G1 X130.631 Y123.207 E1.55692
G1 X130.287 Y123.49 E1.59269
G1 X130.027 Y123.954 E1.6354
G1 X129.552 Y125.339 E1.75299
G1 X129.211 Y124.464 E1.82841
G1 X129.031 Y123.838 E1.88072
G1 X128.775 Y123.405 E1.92112
G1 X128.383 Y123.192 E1.95695
G1 X128.091 Y123.146 E1.98069
G1 X127.721 Y123.235 E2.01125
G1 X127.499 Y123.463 E2.03681
G1 X127.462 Y123.655 E2.05251
;WIDTH:0.630094
G1 X127.426 Y123.846 E2.06695
;WIDTH:0.623068
G1 X127.442 Y124.107 E2.08613
;WIDTH:0.660948
G1 X127.459 Y124.368 E2.10664
;WIDTH:0.675
G1 X128.401 Y126.921 E2.32518
G1 X128.603 Y127.384 E2.36575
G1 X128.705 Y127.723 E2.39418
G1 X128.652 Y127.928 E2.41118
G1 X128.312 Y128.734 E2.48143
G1 X128.07 Y129.127 E2.51849
G1 X127.889 Y129.233 E2.53534
G1 X127.379 Y129.404 E2.57854
G1 X127.137 Y129.553 E2.60136
G1 X126.991 Y129.777 E2.62283
G1 X126.955 Y130.094 E2.64845
G1 X127.087 Y130.526 E2.68473
G1 X127.262 Y130.722 E2.70583
G1 X127.56 Y130.918 E2.73447
G1 X128.052 Y130.942 E2.77403
G1 X128.543 Y130.807 E2.81492
G1 X128.836 Y130.668 E2.84096
G1 X129.202 Y130.367 E2.87902
G1 X129.56 Y129.788 E2.93369
G1 X129.899 Y128.989 E3.00339
G1 X130.143 Y128.36 E3.05757
G1 X131.411 Y124.822 E3.3594
;WIDTH:0.718876
G1 X131.475 Y124.705 E3.37089
;WIDTH:0.762752
G1 X131.539 Y124.588 E3.38317
;WIDTH:0.806628
G1 X131.603 Y124.471 E3.39623
;WIDTH:0.850504
G1 X131.668 Y124.354 E3.41012
;WIDTH:0.89438
G1 X131.732 Y124.238 E3.42465
;WIDTH:0.938257
G1 X131.796 Y124.121 E3.44006
G1 X131.807 Y124.163 E3.44508
;WIDTH:0.919266
G1 X131.849 Y124.227 E3.45373
;WIDTH:0.879931
G1 X131.892 Y124.291 E3.46204
;WIDTH:0.840597
G1 X131.934 Y124.355 E3.46988
