; generated by PrusaSlicer 2.8.0+MacOS-arm64 on 2024-08-05 at 09:30:35 UTC


;
;

;
;
; 

; external perimeters extrusion width = 0.68mm
; perimeters extrusion width = 0.68mm
; infill extrusion width = 0.68mm
; solid infill extrusion width = 0.68mm
; top infill extrusion width = 0.60mm
; first layer extrusion width = 0.70mm


EXCLUDE_OBJECT_DEFINE NAME='3dbenchy_stl' CENTER=123.391,124.999 POLYGON=[[130.814,109.500],[134.040,109.655],[134.842,109.782],[136.896,110.334],[138.822,110.987],[140.548,111.693],[142.366,112.572],[143.930,113.449],[145.637,114.544],[147.104,115.612],[149.831,117.962],[151.282,119.443],[152.498,120.838],[154.652,123.745],[154.966,124.593],[154.999,125.088],[154.932,125.569],[154.624,126.301],[153.660,127.676],[152.060,129.683],[150.200,131.680],[148.512,133.239],[146.544,134.810],[144.652,136.106],[142.594,137.307],[140.579,138.292],[138.493,139.134],[136.296,139.841],[134.316,140.319],[130.908,140.500],[128.133,140.437],[125.373,140.188],[116.462,138.716],[110.338,137.806],[103.551,136.938],[96.792,136.215],[95.992,135.917],[95.407,135.370],[95.127,134.849],[95.000,134.179],[95.000,115.816],[95.081,115.296],[95.264,114.854],[95.539,114.466],[95.887,114.154],[96.312,113.919],[96.798,113.784],[104.180,112.988],[110.657,112.150],[116.858,111.221],[125.055,109.853],[127.988,109.571]]

;TYPE:Custom
START_PRINT BED_TEMP=80 HOTEND_TEMP=215 FILAMENT_TYPE=PLA EXTRUSION_MULTIPLIER=0.92 PERIMETER_SPEED=150
G21 ; set units to millimeters
G90 ; use absolute coordinates
M82 ; use absolute distances for extrusion
G92 E0
; Filament gcode
M107
;LAYER_CHANGE
;Z:0.35
;HEIGHT:0.35
G1 E-.5 F240
G1 Z.35 F9000
EXCLUDE_OBJECT_START NAME='3dbenchy_stl'
G92 E0
G1 X123.163 Y127.655
G1 E.5 F240
G92 E0
;TYPE:External perimeter
;WIDTH:0.895241
G1 F1800
G1 X123.212 Y127.373 E.03143
G1 E-.46857 F240
G92 E0
G1 X123.212 Y127.373 F9000
G1 X120.671 Y126.601
G1 E.5 F240
;WIDTH:0.705719
G1 F1800
G1 X120.54 Y126.821 E.52162
G1 E.02162 F240
G92 E0
G1 X120.54 Y126.821 F9000
G1 X124.224 Y125.801
G1 E.5 F240
;WIDTH:0.7
G1 F1800
G1 X123.535 Y124.574 E.61772
G1 X123.343 Y124.102 E.66035
G1 X123.333 Y123.73 E.69148
G1 X123.487 Y123.424 E.72014
G1 X123.696 Y123.261 E.74231
G1 X124.138 Y123.13 E.78088
G1 X124.491 Y123.222 E.8114
G1 X124.818 Y123.505 E.84758
G1 X125.188 Y124.114 E.90719
G1 X125.436 Y123.636 E.95224
G1 X125.79 Y123.279 E.9943
G1 X126.142 Y123.136 E1.02608
G1 X126.46 Y123.173 E1.05286
G1 X126.766 Y123.388 E1.08415
G1 X126.831 Y123.515 E1.09608
;WIDTH:0.667979
G1 X126.895 Y123.641 E1.1073
;WIDTH:0.635958
G1 X126.929 Y123.994 E1.13393
;WIDTH:0.639717
G1 X126.904 Y124.158 E1.14647
;WIDTH:0.682234
G1 X126.878 Y124.321 E1.15989
;WIDTH:0.7
G1 X126.324 Y125.275 E1.25218
G1 X126.144 Y125.702 E1.29094
G1 X126.228 Y125.964 E1.31396
G1 X126.849 Y126.998 E1.41486
G1 X127.011 Y127.382 E1.44973
G1 X127.042 Y127.671 E1.47405
G1 X126.989 Y127.953 E1.49805
G1 X126.836 Y128.197 E1.52214
G1 X126.599 Y128.369 E1.54664
G1 X126.116 Y128.444 E1.58753
G1 X125.812 Y128.338 E1.61446
G1 X125.624 Y128.18 E1.635
G1 X125.354 Y127.768 E1.67621
G1 X125.108 Y127.323 E1.71875
G1 X124.878 Y127.776 E1.76125
G1 X124.518 Y128.234 E1.80998
G1 X124.23 Y128.402 E1.83787
G1 X124.07 Y128.429 E1.85144
G1 X123.758 Y128.373 E1.87796
G1 X123.459 Y128.174 E1.90801
;WIDTH:0.749433
G1 X123.352 Y128.034 E1.92392
;WIDTH:0.798867
G1 X123.245 Y127.893 E1.94107
;WIDTH:0.836348
G1 X123.204 Y127.774 E1.9539
;WIDTH:0.873829
G1 X123.163 Y127.655 E1.96736
G1 X123.099 Y127.78 E1.98238
;WIDTH:0.828255
G1 X123.035 Y127.905 E1.99654
;WIDTH:0.782681
G1 X122.874 Y128.115 E2.02161
;WIDTH:0.74134
G1 X122.712 Y128.325 E2.04527
;WIDTH:0.7
G1 X122.298 Y128.605 E2.08708
G1 X121.772 Y128.714 E2.13202
G1 X121.266 Y128.612 E2.1752
G1 X120.819 Y128.325 E2.21964
G1 X120.53 Y127.897 E2.26284
G1 X120.427 Y127.296 E2.31385
;WIDTH:0.69811
G1 X120.527 Y126.853 E2.35173
G1 X120.296 Y127.227 E2.38839
;WIDTH:0.7
G1 X119.945 Y127.604 E2.43148
G1 X119.433 Y127.942 E2.4828
G1 X118.917 Y128.121 E2.52849
G1 X118.403 Y128.204 E2.57205
G1 X117.862 Y128.234 E2.61738
G1 X117.144 Y128.227 E2.67745
G1 X116.616 Y128.266 E2.72174
G1 X116.276 Y128.215 E2.7505
G1 X116.094 Y128.11 E2.76808
G1 X115.89 Y127.866 E2.79469
G1 X115.767 Y127.317 E2.84176
;WIDTH:0.7364
G1 X115.754 Y127.034 E2.86684
;WIDTH:0.772801
G1 X115.741 Y126.751 E2.8933
G1 X115.757 Y126.233 E2.9417
;WIDTH:0.77682
G1 X115.742 Y125.856 E2.97714
;WIDTH:0.806883
G1 X115.728 Y125.479 E3.0141
G1 X115.751 Y125.225 E3.03908
;WIDTH:0.761156
G1 X115.774 Y124.971 E3.0625
;WIDTH:0.71543
G1 X115.783 Y124.459 E3.1064
;WIDTH:0.742409
G1 X115.762 Y124.31 E3.11984
;WIDTH:0.784818
G1 X115.741 Y124.161 E3.13414
;WIDTH:0.827227
G1 X115.72 Y124.013 E3.14919
;WIDTH:0.869637
G1 X115.699 Y123.864 E3.16519
;WIDTH:0.880469
G1 X115.689 Y122.77 E3.28314
;WIDTH:0.851413
G1 X115.683 Y122.468 E3.31453
;WIDTH:0.822358
G1 X115.753 Y122.318 E3.33109
;WIDTH:0.781572
G1 X115.823 Y122.168 E3.34675
;WIDTH:0.740786
G1 X115.893 Y122.019 E3.36142
;WIDTH:0.7
G1 X116.132 Y121.82 E3.38744
G1 X116.439 Y121.713 E3.41464
G1 X116.742 Y121.684 E3.4401
G1 X118.33 Y121.72 E3.57298
G1 X118.835 Y121.787 E3.6156
G1 X119.336 Y121.924 E3.65905
G1 X119.739 Y122.129 E3.69687
G1 X120.11 Y122.438 E3.73726
G1 X120.47 Y122.916 E3.78732
G1 X120.637 Y123.212 E3.81575
G1 X120.843 Y123.808 E3.8685
G1 X120.948 Y124.442 E3.92226
G1 X120.955 Y125.038 E3.97212
G1 X120.954 Y125.363 E3.99931
G1 X120.865 Y125.975 E4.05105
;WIDTH:0.7051
G1 X120.695 Y126.542 E4.10097
;WIDTH:0.705719
G1 X120.671 Y126.601 E4.10635
G1 X120.865 Y126.364 E4.13221
;WIDTH:0.702577
G1 X121.276 Y126.112 E4.17271
;WIDTH:0.7
G1 X121.79 Y126.02 E4.21639
G1 X122.314 Y126.133 E4.26123
G1 X122.71 Y126.404 E4.30137
G1 X123.004 Y126.836 E4.34508
;WIDTH:0.74881
G1 X123.056 Y126.971 E4.35813
;WIDTH:0.79762
G1 X123.108 Y127.105 E4.37203
;WIDTH:0.84643
G1 X123.16 Y127.239 E4.38687
;WIDTH:0.895241
G1 X123.212 Y127.373 E4.40265
G1 X123.273 Y127.26 E4.41675
;WIDTH:0.849122
G1 X123.335 Y127.146 E4.4302
;WIDTH:0.803004
G1 X123.443 Y126.992 E4.44853
;WIDTH:0.768669
G1 X123.551 Y126.837 E4.46607
;WIDTH:0.734334
G1 X123.659 Y126.683 E4.48267
;WIDTH:0.7
G1 X123.914 Y126.239 E4.5255
G1 X124.172 Y125.874 E4.56289
G1 X123.947 Y125.318 F9000
G1 E4.06289 F240
G92 E0
G1 X111.616 Y123.552 F9000
G1 E.5 F240
;WIDTH:0.680648
G1 F1800
G1 X111.593 Y123.559 E.50195
;WIDTH:0.7
G1 X111.345 Y123.484 E.52362
G1 X111.097 Y123.277 E.55064
G1 X110.948 Y123.03 E.57477
;WIDTH:0.684209
G1 X110.928 Y122.901 E.58541
;WIDTH:0.644127
G1 X110.909 Y122.772 E.59534
;WIDTH:0.630045
G1 X110.943 Y122.534 E.6132
;WIDTH:0.656046
G1 X110.977 Y122.296 E.6319
;WIDTH:0.7
G1 X111.074 Y122.147 E.64677
G1 X111.424 Y121.849 E.68522
G1 X111.961 Y121.623 E.73396
G1 X112.617 Y121.525 E.78945
G1 X113.259 Y121.555 E.84322
G1 X113.811 Y121.696 E.89088
G1 X114.269 Y121.966 E.93536
G1 X114.616 Y122.388 E.98106
;WIDTH:0.740786
G1 X114.675 Y122.468 E.98992
;WIDTH:0.781572
G1 X114.734 Y122.547 E.99925
;WIDTH:0.822358
G1 X114.794 Y122.626 E1.00917
;WIDTH:0.847439
G1 X114.841 Y122.759 E1.02375
;WIDTH:0.872521
G1 X114.887 Y122.891 E1.03867
;WIDTH:0.887434
G1 X114.878 Y123.657 E1.12198
G1 X114.829 Y123.78 E1.13638
;WIDTH:0.849407
G1 X114.78 Y123.902 E1.15001
;WIDTH:0.81138
G1 X114.731 Y124.024 E1.16297
;WIDTH:0.773353
G1 X114.547 Y124.24 E1.18949
;WIDTH:0.736676
G1 X114.362 Y124.455 E1.21461
;WIDTH:0.7
G1 X114.307 Y124.494 E1.22025
G1 X114.659 Y124.818 E1.26027
;WIDTH:0.744305
G1 X114.82 Y125.156 E1.29381
;WIDTH:0.78861
G1 X114.981 Y125.494 E1.32957
G1 X115.083 Y126.174 E1.39525
;WIDTH:0.762487
G1 X115.034 Y126.71 E1.44478
G1 X114.866 Y127.066 E1.481
;WIDTH:0.731243
G1 X114.697 Y127.422 E1.51561
;WIDTH:0.7
G1 X114.38 Y127.81 E1.55752
G1 X113.993 Y128.101 E1.59803
G1 X113.669 Y128.255 E1.62804
G1 X113.214 Y128.37 E1.6673
G1 X112.472 Y128.399 E1.72942
G1 X111.772 Y128.267 E1.78901
G1 X111.268 Y128.002 E1.83665
G1 X111.186 Y127.935 E1.84551
G1 X110.976 Y127.644 E1.87553
G1 X110.878 Y127.386 E1.89862
G1 X110.857 Y127.086 E1.92378
G1 X110.954 Y126.744 E1.95352
G1 X111.132 Y126.532 E1.97668
;WIDTH:0.736831
G1 X111.49 Y126.351 E2.01222
;WIDTH:0.780699
G1 X111.593 Y126.32 E2.02238
;WIDTH:0.824568
G1 X111.696 Y126.29 E2.03314
;WIDTH:0.868437
G1 X111.799 Y126.26 E2.04453
;WIDTH:0.882267
G1 X112.295 Y126.391 E2.09996
G1 X112.748 Y126.701 E2.15927
;WIDTH:0.870644
G1 X112.879 Y126.72 E2.17337
G1 X113.066 Y126.61 E2.19648
G1 X113.182 Y126.335 E2.22827
G1 X113.157 Y126.139 E2.24931
G1 X113.026 Y125.937 E2.27495
;WIDTH:0.889263
G1 X112.744 Y125.716 E2.314
G1 X112.337 Y125.57 E2.36113
;WIDTH:0.869161
G1 X111.934 Y125.477 E2.4051
G1 X111.852 Y125.38 E2.4186
;WIDTH:0.82687
G1 X111.771 Y125.282 E2.4314
;WIDTH:0.78458
G1 X111.689 Y125.184 E2.44354
;WIDTH:0.74229
G1 X111.607 Y125.087 E2.45488
;WIDTH:0.7
G1 X111.541 Y124.8 E2.47952
G1 X111.611 Y124.347 E2.51787
G1 X111.814 Y124.061 E2.54721
;WIDTH:0.680648
G1 X112.005 Y123.975 E2.56419
;WIDTH:0.633773
G1 X112.197 Y123.89 E2.57989
;WIDTH:0.628821
G1 X112.471 Y123.809 E2.60107
;WIDTH:0.670744
G1 X112.744 Y123.727 E2.6238
G1 X112.92 Y123.583 E2.64193
;WIDTH:0.668916
G1 X112.987 Y123.352 E2.66105
G1 X112.935 Y123.227 E2.67181
G1 X112.848 Y123.146 E2.68126
G1 X112.613 Y123.135 E2.69996
G1 X112.311 Y123.278 E2.72652
;WIDTH:0.627907
G1 X112.009 Y123.422 E2.75128
;WIDTH:0.633773
G1 X111.801 Y123.49 E2.76765
;WIDTH:0.680648
G1 X111.701 Y123.523 E2.77619
G1 X111.145 Y123.298 F9000
G1 E2.27619 F240
G92 E0
G1 X103.233 Y126.401 F9000
G1 E.5 F240
;WIDTH:0.7
G1 F1800
G1 X103.548 Y126.224 E.53023
G1 X104.05 Y126.222 E.57223
G1 X104.421 Y126.41 E.60702
G1 X104.646 Y126.693 E.63727
G1 X104.72 Y126.998 E.66353
G1 X104.616 Y127.345 E.69383
G1 X104.399 Y127.687 E.72771
G1 X104.156 Y127.926 E.75622
G1 X103.683 Y128.208 E.80229
G1 X103.082 Y128.371 E.85438
G1 X102.229 Y128.385 E.92575
G1 X101.66 Y128.266 E.97438
G1 X100.984 Y127.931 E1.03749
G1 X100.623 Y127.634 E1.0766
G1 X100.263 Y127.194 E1.12416
G1 X99.925 Y126.48 E1.19024
G1 X99.902 Y126.288 E1.20642
;WIDTH:0.66239
G1 X99.879 Y126.096 E1.22162
;WIDTH:0.62478
G1 X99.856 Y125.904 E1.23585
;WIDTH:0.58717
G1 X99.833 Y125.712 E1.24911
;WIDTH:0.549561
G1 X99.801 Y125.004 E1.29412
;WIDTH:0.540104
G1 X99.829 Y124.292 E1.33848
;WIDTH:0.580078
G1 X99.839 Y124.128 E1.34959
;WIDTH:0.620052
G1 X99.849 Y123.964 E1.36158
;WIDTH:0.660026
G1 X99.859 Y123.8 E1.37445
;WIDTH:0.7
G1 X99.869 Y123.636 E1.38819
G1 X100.064 Y123.094 E1.43638
G1 X100.407 Y122.538 E1.49103
G1 X100.862 Y122.086 E1.54468
G1 X101.409 Y121.76 E1.59795
G1 X101.99 Y121.58 E1.64883
G1 X102.577 Y121.524 E1.69816
G1 X103.321 Y121.603 E1.76075
G1 X103.75 Y121.754 E1.7988
G1 X104.243 Y122.075 E1.84801
G1 X104.508 Y122.368 E1.88106
;WIDTH:0.687147
G1 X104.575 Y122.629 E1.90314
;WIDTH:0.644206
G1 X104.642 Y122.889 E1.9236
;WIDTH:0.636237
G1 X104.635 Y123.003 E1.93218
;WIDTH:0.67121
G1 X104.629 Y123.117 E1.94129
;WIDTH:0.7
G1 X104.547 Y123.367 E1.9633
G1 X104.23 Y123.664 E1.99964
G1 X103.933 Y123.747 E2.02544
G1 X103.427 Y123.638 E2.06874
G1 X102.766 Y123.264 E2.13227
G1 X102.452 Y123.244 E2.15859
G1 X102.122 Y123.306 E2.18668
G1 X101.797 Y123.53 E2.2197
G1 X101.566 Y123.914 E2.25719
G1 X101.436 Y124.501 E2.30749
G1 X101.432 Y125.383 E2.38127
G1 X101.56 Y126.004 E2.43431
G1 X101.733 Y126.314 E2.46401
G1 X101.993 Y126.557 E2.49378
G1 X102.37 Y126.681 E2.52698
G1 X102.699 Y126.693 E2.55452
G1 X102.986 Y126.624 E2.57921
G1 X103.144 Y126.5 E2.59601
G1 X103.172 Y126.467 E2.59963
G1 X103.73 Y126.245 F9000
G1 E2.09963 F240
G92 E0
G1 X108.594 Y123.346 F9000
G1 E.5 F240
G1 F1800
G1 X108.579 Y124.238 E.57463
G1 X108.593 Y127.348 E.8348
G1 X108.45 Y127.867 E.87983
G1 X108.214 Y128.119 E.90871
G1 X107.973 Y128.227 E.9308
G1 X107.634 Y128.253 E.95924
G1 X107.272 Y128.145 E.99084
G1 X107.024 Y127.922 E1.01874
G1 X106.912 Y127.542 E1.05188
G1 X106.949 Y126.924 E1.10367
G1 X106.933 Y124.152 E1.33557
G1 X106.965 Y123.613 E1.38074
G1 X106.928 Y123.436 E1.39587
G1 X106.794 Y123.341 E1.40961
G1 X106.505 Y123.324 E1.43383
G1 X105.857 Y123.392 E1.48834
G1 X105.56 Y123.346 E1.51348
G1 X105.272 Y123.153 E1.54248
G1 X105.22 Y122.988 E1.55695
;WIDTH:0.660365
G1 X105.168 Y122.822 E1.57058
;WIDTH:0.62073
G1 X105.115 Y122.657 E1.58324
;WIDTH:0.61566
G1 X105.099 Y122.525 E1.59286
;WIDTH:0.650224
G1 X105.083 Y122.392 E1.60317
;WIDTH:0.7
G1 X105.137 Y122.125 E1.62596
G1 X105.182 Y122.049 E1.63335
G1 X105.292 Y121.899 E1.64891
G1 X105.544 Y121.733 E1.67415
G1 X105.905 Y121.664 E1.7049
G1 X106.489 Y121.706 E1.75388
G1 X109.778 Y121.695 E2.02902
G1 X110.196 Y121.824 E2.06562
G1 X110.423 Y122.105 E2.09584
G1 X110.438 Y122.284 E2.11087
;WIDTH:0.650201
G1 X110.454 Y122.462 E2.12463
;WIDTH:0.642305
G1 X110.407 Y122.726 E2.14499
;WIDTH:0.684209
G1 X110.36 Y122.99 E2.16686
;WIDTH:0.7
G1 X110.214 Y123.146 E2.18473
G1 X109.999 Y123.266 E2.20533
G1 X109.472 Y123.355 E2.25004
G1 X108.679 Y123.342 E2.31639
G1 X108.585 Y123.935 F9000
G1 E1.81639 F240
G92 E0
G1 X135.798 Y128.063 F9000
G1 E.5 F240
;WIDTH:0.765969
G1 F1800
G1 X135.547 Y128.317 E.53303
G1 X135.547 Y128.317 F9000
G1 X135.798 Y128.063
;WIDTH:0.760081
G1 F1800
G1 X135.89 Y127.701 E.56728
;WIDTH:0.721404
G1 X135.834 Y127.29 E.60317
;WIDTH:0.7
G1 X135.765 Y127.146 E.61653
G1 X135.597 Y126.963 E.63731
G1 X135.257 Y126.8 E.66885
G1 X134.72 Y126.734 E.71411
G1 X134.172 Y126.745 E.75996
G1 X135.4 Y125.017 E.9373
G1 X135.721 Y124.46 E.99108
G1 X135.801 Y124.129 E1.01957
G1 X135.795 Y123.846 E1.04325
G1 X135.631 Y123.432 E1.0805
G1 X135.381 Y123.219 E1.10798
G1 X135.029 Y123.135 E1.13825
G1 X133.067 Y123.129 E1.30238
G1 X132.545 Y123.171 E1.34619
G1 X132.155 Y123.359 E1.38241
;WIDTH:0.749383
G1 X132.023 Y123.512 E1.40065
;WIDTH:0.798766
G1 X131.891 Y123.665 E1.42023
;WIDTH:0.846076
G1 X131.857 Y123.763 E1.43094
;WIDTH:0.893386
G1 X131.823 Y123.861 E1.4423
;WIDTH:0.940697
G1 X131.789 Y123.959 E1.45432
G1 X131.739 Y123.854 E1.4678
;WIDTH:0.893386
G1 X131.688 Y123.748 E1.48069
;WIDTH:0.846076
G1 X131.638 Y123.643 E1.49269
;WIDTH:0.798766
G1 X131.457 Y123.46 E1.51763
;WIDTH:0.749383
G1 X131.275 Y123.277 E1.54093
;WIDTH:0.7
G1 X131.027 Y123.154 E1.56409
G1 X130.782 Y123.143 E1.58461
G1 X130.624 Y123.197 E1.59858
G1 X130.276 Y123.484 E1.63632
G1 X130.016 Y123.948 E1.68081
G1 X129.551 Y125.301 E1.80049
G1 X129.222 Y124.46 E1.87604
G1 X129.042 Y123.831 E1.93077
G1 X128.784 Y123.396 E1.97308
G1 X128.388 Y123.181 E2.01078
G1 X128.092 Y123.134 E2.03585
G1 X127.715 Y123.225 E2.06829
G1 X127.489 Y123.455 E2.09526
G1 X127.468 Y123.585 E2.10628
;WIDTH:0.661729
G1 X127.447 Y123.716 E2.1167
;WIDTH:0.623459
G1 X127.426 Y123.846 E2.12637
;WIDTH:0.633711
G1 X127.437 Y124.109 E2.14605
;WIDTH:0.682234
G1 X127.449 Y124.372 E2.16745
;WIDTH:0.7
G1 X128.389 Y126.925 E2.39504
G1 X128.592 Y127.389 E2.43741
G1 X128.692 Y127.723 E2.46658
G1 X128.64 Y127.924 E2.48395
G1 X128.301 Y128.73 E2.5571
G1 X128.061 Y129.118 E2.59527
G1 X127.882 Y129.222 E2.61259
G1 X127.375 Y129.392 E2.65732
G1 X127.128 Y129.544 E2.68158
G1 X126.979 Y129.773 E2.70444
G1 X126.943 Y130.093 E2.73138
G1 X127.075 Y130.53 E2.76957
G1 X127.254 Y130.731 E2.79209
G1 X127.557 Y130.931 E2.82246
G1 X128.055 Y130.954 E2.86416
G1 X128.546 Y130.819 E2.90676
G1 X128.842 Y130.679 E2.93415
G1 X129.212 Y130.374 E2.97426
G1 X129.572 Y129.793 E3.03144
G1 X129.911 Y128.994 E3.10405
G1 X130.155 Y128.364 E3.16057
G1 X131.422 Y124.827 E3.47487
;WIDTH:0.747651
G1 X131.497 Y124.685 E3.48933
;WIDTH:0.795303
G1 X131.572 Y124.544 E3.50473
;WIDTH:0.842955
G1 X131.646 Y124.403 E3.5211
;WIDTH:0.890607
G1 X131.721 Y124.262 E3.53854
;WIDTH:0.938259
G1 X131.796 Y124.121 E3.55699
G1 X131.806 Y124.163 E3.56198
;WIDTH:0.921072
G1 X131.86 Y124.25 E3.57358
;WIDTH:0.873606
G1 X131.915 Y124.337 E3.58458
;WIDTH:0.82614
G1 X131.969 Y124.423 E3.59479
;WIDTH:0.778675
G1 X132.148 Y124.562 E3.61614
;WIDTH:0.739337
G1 X132.326 Y124.7 E3.63617
;WIDTH:0.7
G1 X132.668 Y124.796 E3.66589
G1 X133.228 Y124.831 E3.71283
G1 X133.507 Y124.811 E3.73623
G1 X132.069 Y126.814 E3.9425
G1 X131.873 Y127.308 E3.98696
G1 X131.851 Y127.618 E4.01296
G1 X132.039 Y128.148 E4.06
G1 X132.375 Y128.391 E4.09469
